client/svg/unfullscreen.svg

<svg xmlns="http://www.w3.org/2000/svg" width="512" height="512" viewBox="-32 0 512 512"><path d="M63.969 95.969h-63.969v32h95.969v-95.969h-32v63.969zM0 416.031h63.969v63.969h32v-95.969h-95.969v32zM384.031 95.969v-63.969h-32v95.969h95.969v-32h-63.969zM352.031 480h32v-63.969h63.969v-32h-95.969v95.969zM96.031 352h255.969v-192h-255.969v192zM160 224h128v64h-128v-64z"></path></svg>

<svg xmlns="http://www.w3.org/2000/svg" width="512" height="512" viewBox="-32 0 512 512"><path d="M63.97 95.97H0v32h95.97V32h-32v63.97zM0 416.03h63.97V480h32v-95.97H0v32zM384.03 95.97V32h-32v95.97H448v-32h-63.97zm-32 384.03h32v-63.97H448v-32h-95.97V480zm-256-128H352V160H96.03v192zM160 224h128v64H160v-64z"/></svg>
